src/images/dolar.svg

<svg width="123" height="123" viewBox="0 0 123 123" fill="none" xmlns="http://www.w3.org/2000/svg">
<g clip-path="url(#clip0_283_1571)">
<path d="M61.4401 6.04868e-05C75.66 -0.0040042 89.4414 4.92291 100.436 13.9412C111.43 22.9595 118.957 35.5112 121.734 49.4573C124.511 63.4034 122.367 77.881 115.665 90.423C108.964 102.965 98.1215 112.795 84.9847 118.239C71.8479 123.682 57.23 124.402 43.622 120.275C30.014 116.149 18.258 107.431 10.3573 95.608C2.45649 83.785 -1.1001 69.5881 0.293534 55.4366C1.68717 41.2851 7.9448 28.0548 18.0001 18.0001C23.6968 12.2843 30.4675 7.75151 37.9227 4.66235C45.3778 1.5732 53.3703 -0.0112838 61.4401 6.04868e-05Z" fill="#FECB00"/>
<path fill-rule="evenodd" clip-rule="evenodd" d="M61.44 8.73998C68.361 8.73867 75.2145 10.1009 81.609 12.7489C88.0034 15.3968 93.8135 19.2786 98.7075 24.1725C103.601 29.0664 107.483 34.8766 110.131 41.271C112.779 47.6655 114.141 54.5189 114.14 61.44C114.14 61.75 114.14 62.05 114.14 62.36C113.96 52.3806 110.847 42.6749 105.19 34.4519C99.5333 26.2289 91.5819 19.8521 82.3266 16.116C73.0713 12.3798 62.9212 11.4495 53.1409 13.4408C43.3606 15.4322 34.3824 20.2572 27.3248 27.3148C20.2672 34.3724 15.4422 43.3506 13.4508 53.1309C11.4595 62.9112 12.3898 73.0612 16.126 82.3165C19.8621 91.5719 26.2389 99.5233 34.4619 105.18C42.6849 110.837 52.3907 113.95 62.37 114.13H61.45C47.4731 114.13 34.0686 108.578 24.1855 98.6945C14.3023 88.8113 8.75 75.4069 8.75 61.43C8.75 47.4531 14.3023 34.0486 24.1855 24.1655C34.0686 14.2823 47.4731 8.72998 61.45 8.72998L61.44 8.73998Z" fill="#D08B00"/>
<path fill-rule="evenodd" clip-rule="evenodd" d="M63.2802 12.4102C73.3413 12.4102 83.1765 15.3936 91.542 20.9833C99.9075 26.573 106.428 34.5178 110.278 43.813C114.128 53.1083 115.136 63.3366 113.173 73.2044C111.21 83.0722 106.365 92.1364 99.2507 99.2507C92.1364 106.365 83.0722 111.21 73.2044 113.173C63.3366 115.136 53.1083 114.128 43.813 110.278C34.5178 106.428 26.573 99.9075 20.9833 91.542C15.3936 83.1765 12.4102 73.3413 12.4102 63.2802C12.4102 49.7886 17.7697 36.8496 27.3096 27.3096C36.8496 17.7697 49.7886 12.4102 63.2802 12.4102Z" fill="#DB9300"/>
<path d="M83.8302 47.0598L69.7402 49.3298C69.2829 47.99 68.64 46.721 67.8302 45.5598C67.0343 44.6751 66.0729 43.9548 65.0002 43.4398V54.5898C72.6535 56.6764 77.7668 58.8731 80.3402 61.1798C81.9945 62.6644 83.3078 64.4897 84.1899 66.53C85.072 68.5704 85.5019 70.7775 85.4502 72.9998C85.4837 75.678 84.855 78.323 83.6202 80.6998C81.3867 85.0792 77.5339 88.4154 72.8802 89.9998C70.3237 90.7793 67.6722 91.2032 65.0002 91.2598V98.5198H59.5302V91.2598C56.4623 91.0582 53.4353 90.4461 50.5302 89.4398C48.3083 88.6229 46.2694 87.3757 44.5302 85.7698C42.9516 84.3478 41.6409 82.6544 40.6602 80.7698C39.6801 78.6982 39.0064 76.4952 38.6602 74.2298L53.9102 72.4198C54.1516 74.3509 54.7772 76.2142 55.7502 77.8998C56.7425 79.2093 58.0544 80.2423 59.5602 80.8998V67.2098C55.8448 66.2702 52.2153 65.0191 48.7102 63.4698C46.4463 62.2968 44.5345 60.5437 43.1702 58.3898C41.5517 55.8568 40.7361 52.8941 40.8302 49.8898C40.7762 47.7566 41.1661 45.6355 41.9752 43.661C42.7843 41.6865 43.9948 39.9017 45.5302 38.4198C48.6802 35.3398 53.3502 33.6198 59.5302 33.2998V29.5098H65.0002V33.2998C70.6535 33.6531 74.9868 35.0131 78.0002 37.3798C81.035 39.8118 83.108 43.2421 83.8502 47.0598H83.8302ZM59.5302 43.2498C58.2378 43.5854 57.0664 44.2786 56.1502 45.2498C55.4946 46.0384 55.1402 47.0342 55.1502 48.0598C55.1359 49.1255 55.489 50.1637 56.1502 50.9998C57.0502 52.0069 58.2195 52.7355 59.5202 53.0998V43.2498H59.5302ZM65.0202 81.2498C66.7993 80.9482 68.4412 80.1028 69.7202 78.8298C70.686 77.7891 71.2188 76.4195 71.2102 74.9998C71.2078 73.7886 70.7794 72.6169 70.0002 71.6898C69.1602 70.6898 67.5102 69.6898 65.0702 68.8598V81.2298L65.0202 81.2498Z" fill="#B17600"/>
<path d="M81.19 44.9998L67.1 47.2198C66.6425 45.9081 65.9993 44.6689 65.19 43.5398C64.3951 42.6731 63.4411 41.9669 62.38 41.4598V52.3798C70.0333 54.4265 75.1467 56.5831 77.72 58.8498C79.3688 60.2926 80.6796 62.0808 81.5594 64.0873C82.4391 66.0939 82.8661 68.2696 82.81 70.4598C82.8436 73.0846 82.2215 75.6763 81 77.9998C79.8403 80.2102 78.2489 82.1655 76.32 83.7498C74.5209 85.2318 72.4629 86.3676 70.25 87.0998C67.699 87.8527 65.0592 88.2629 62.4 88.3198V95.4398H56.9V88.3198C53.8342 88.1293 50.8075 87.5307 47.9 86.5398C45.6855 85.7401 43.6477 84.5174 41.9 82.9398C40.3161 81.5386 38.9953 79.8656 38 77.9998C37.0265 75.9712 36.3528 73.812 36 71.5898L51.24 69.8198C51.481 71.7179 52.1108 73.546 53.09 75.1898C54.0867 76.474 55.3946 77.4825 56.89 78.1198V64.7498C53.1656 63.831 49.5233 62.6069 46 61.0898C43.5608 59.8445 41.5247 57.9329 40.1281 55.577C38.7316 53.2211 38.0318 50.5174 38.11 47.7798C38.0634 45.6793 38.4586 43.5925 39.27 41.6545C40.0814 39.7165 41.2908 37.9706 42.82 36.5298C45.9667 33.5098 50.6333 31.8431 56.82 31.5298V27.7998H62.32V31.5098C67.9733 31.8565 72.3067 33.1898 75.32 35.5098C78.3481 37.8698 80.4305 41.2365 81.19 44.9998ZM56.88 41.2598C55.5896 41.5999 54.4192 42.2924 53.5 43.2598C52.8487 44.0314 52.4941 45.0101 52.5 46.0198C52.4879 47.0639 52.8417 48.0793 53.5 48.8898C54.4019 49.8835 55.5669 50.6012 56.86 50.9598V41.2598H56.88ZM62.38 78.4898C64.149 78.1984 65.786 77.3711 67.07 76.1198C68.0246 75.1276 68.5615 73.8066 68.57 72.4298C68.5559 71.2179 68.109 70.0511 67.31 69.1398C65.9208 67.8232 64.227 66.8715 62.38 66.3698V78.4898Z" fill="#FECB00"/>
</g>
<defs>
<clipPath id="clip0_283_1571">
<rect width="122.88" height="122.88" fill="white"/>
</clipPath>
</defs>
</svg>

<svg id="Layer_1" data-name="Layer 1" xmlns="http://www.w3.org/2000/svg" viewBox="0 0 122.88 122.88"><defs><style>.cls-1{fill:#fecb00;}.cls-2{fill:#d08b00;}.cls-2,.cls-3{fill-rule:evenodd;}.cls-3{fill:#db9300;}.cls-4{fill:#b17600;}</style></defs><title>us-dollar-coin-color</title><path class="cls-1" d="M61.44,0A61.46,61.46,0,1,1,18,18,61.21,61.21,0,0,1,61.44,0Z"/><path class="cls-2" d="M61.44,8.74a52.69,52.69,0,0,1,52.7,52.7c0,.31,0,.61,0,.92a50.86,50.86,0,1,0-51.77,51.77h-.92a52.7,52.7,0,0,1,0-105.4Z"/><path class="cls-3" d="M63.28,12.41A50.87,50.87,0,1,1,12.41,63.28,50.87,50.87,0,0,1,63.28,12.41Z"/><path class="cls-4" d="M83.83,47.06,69.74,49.33a15.14,15.14,0,0,0-1.91-3.77A9.11,9.11,0,0,0,65,43.44V54.59q11.48,3.13,15.34,6.59A15.4,15.4,0,0,1,85.45,73a16.26,16.26,0,0,1-1.83,7.7A18.89,18.89,0,0,1,72.88,90,29.13,29.13,0,0,1,65,91.26v7.26H59.53V91.26a34.38,34.38,0,0,1-9-1.82,18,18,0,0,1-6-3.67,17.77,17.77,0,0,1-3.87-5,23.65,23.65,0,0,1-2-6.54l15.25-1.81a14.58,14.58,0,0,0,1.84,5.48,9.6,9.6,0,0,0,3.81,3V67.21a68.18,68.18,0,0,1-10.85-3.74,14.4,14.4,0,0,1-5.54-5.08,14.92,14.92,0,0,1-2.34-8.5,15.4,15.4,0,0,1,4.7-11.47c3.15-3.08,7.82-4.8,14-5.12V29.51H65V33.3q8.48.53,13,4.08a16.42,16.42,0,0,1,5.85,9.68Zm-24.3-3.81a7.1,7.1,0,0,0-3.38,2,4.33,4.33,0,0,0-1,2.81,4.64,4.64,0,0,0,1,2.94,7.08,7.08,0,0,0,3.37,2.1V43.25Zm5.49,38a8.73,8.73,0,0,0,4.7-2.42A5.58,5.58,0,0,0,71.21,75,5.16,5.16,0,0,0,70,71.69c-.84-1-2.49-2-4.93-2.83V81.23Z"/><path class="cls-1" d="M81.19,45,67.1,47.22a14.53,14.53,0,0,0-1.91-3.68,9.19,9.19,0,0,0-2.81-2.08V52.38q11.48,3.07,15.34,6.47a14.92,14.92,0,0,1,5.09,11.61A15.77,15.77,0,0,1,81,78a18.66,18.66,0,0,1-4.68,5.75,18.87,18.87,0,0,1-6.07,3.35,30,30,0,0,1-7.85,1.22v7.12h-5.5V88.32a34.54,34.54,0,0,1-9-1.78,18.16,18.16,0,0,1-6-3.6A17.75,17.75,0,0,1,38,78a23.24,23.24,0,0,1-2-6.41l15.24-1.77a13.92,13.92,0,0,0,1.85,5.37,9.55,9.55,0,0,0,3.8,2.93V64.75A69.82,69.82,0,0,1,46,61.09a14.48,14.48,0,0,1-7.89-13.31,15,15,0,0,1,4.71-11.25q4.72-4.53,14-5V27.8h5.5v3.71q8.48.52,13,4A16.06,16.06,0,0,1,81.19,45ZM56.88,41.26a7.19,7.19,0,0,0-3.38,2,4.24,4.24,0,0,0-1,2.76,4.47,4.47,0,0,0,1,2.87,7.1,7.1,0,0,0,3.36,2.07V41.26Zm5.5,37.23a8.76,8.76,0,0,0,4.69-2.37,5.37,5.37,0,0,0,1.5-3.69,5.08,5.08,0,0,0-1.26-3.29,11.58,11.58,0,0,0-4.93-2.77V78.49Z"/></svg>
